fs/desktop_keyboard_20_regular.svg

<svg viewBox="0 0 20 20" fill="none" xmlns="http://www.w3.org/2000/svg" height="1em" width="1em">
  <path d="M2 4C2 2.89543 2.89543 2 4 2H16C17.1046 2 18 2.89543 18 4V11.1035C17.7616 11.0361 17.51 11 17.25 11H17V4C17 3.44772 16.5523 3 16 3H4C3.44772 3 3 3.44772 3 4V13C3 13.5523 3.44772 14 4 14H9V17.25C9 17.51 9.03608 17.7616 9.10352 18H6.5C6.22386 18 6 17.7761 6 17.5C6 17.2239 6.22386 17 6.5 17H8V15H4C2.89543 15 2 14.1046 2 13V4ZM11.75 12H17.25C18.2165 12 19 12.7835 19 13.75V17.25C19 18.2165 18.2165 19 17.25 19H11.75C10.7835 19 10 18.2165 10 17.25V13.75C10 12.7835 10.7835 12 11.75 12ZM12 17.5C12 17.7761 12.2239 18 12.5 18H16.5C16.7761 18 17 17.7761 17 17.5C17 17.2239 16.7761 17 16.5 17H12.5C12.2239 17 12 17.2239 12 17.5ZM12.5 14C12.7761 14 13 13.7761 13 13.5C13 13.2239 12.7761 13 12.5 13C12.2239 13 12 13.2239 12 13.5C12 13.7761 12.2239 14 12.5 14ZM14 15.5C14 15.2239 13.7761 15 13.5 15C13.2239 15 13 15.2239 13 15.5C13 15.7761 13.2239 16 13.5 16C13.7761 16 14 15.7761 14 15.5ZM14.5 14C14.7761 14 15 13.7761 15 13.5C15 13.2239 14.7761 13 14.5 13C14.2239 13 14 13.2239 14 13.5C14 13.7761 14.2239 14 14.5 14ZM16 15.5C16 15.2239 15.7761 15 15.5 15C15.2239 15 15 15.2239 15 15.5C15 15.7761 15.2239 16 15.5 16C15.7761 16 16 15.7761 16 15.5ZM16.5 14C16.7761 14 17 13.7761 17 13.5C17 13.2239 16.7761 13 16.5 13C16.2239 13 16 13.2239 16 13.5C16 13.7761 16.2239 14 16.5 14Z" fill="#212121"/>
</svg>

<svg viewBox="0 0 20 20" fill="none" xmlns="http://www.w3.org/2000/svg" height="1em" width="1em">
  <path d="M2 4a2 2 0 0 1 2-2h12a2 2 0 0 1 2 2v7.104a2.753 2.753 0 0 0-.75-.104H17V4a1 1 0 0 0-1-1H4a1 1 0 0 0-1 1v9a1 1 0 0 0 1 1h5v3.25c0 .26.036.512.104.75H6.5a.5.5 0 0 1 0-1H8v-2H4a2 2 0 0 1-2-2V4Zm9.75 8h5.5c.966 0 1.75.784 1.75 1.75v3.5A1.75 1.75 0 0 1 17.25 19h-5.5A1.75 1.75 0 0 1 10 17.25v-3.5c0-.966.784-1.75 1.75-1.75Zm.25 5.5a.5.5 0 0 0 .5.5h4a.5.5 0 0 0 0-1h-4a.5.5 0 0 0-.5.5Zm.5-3.5a.5.5 0 1 0 0-1 .5.5 0 0 0 0 1Zm1.5 1.5a.5.5 0 1 0-1 0 .5.5 0 0 0 1 0Zm.5-1.5a.5.5 0 1 0 0-1 .5.5 0 0 0 0 1Zm1.5 1.5a.5.5 0 1 0-1 0 .5.5 0 0 0 1 0Zm.5-1.5a.5.5 0 1 0 0-1 .5.5 0 0 0 0 1Z" fill="#212121"/>
</svg>
